_includes/icons/stack-overflow.svg

<svg xmlns="http://www.w3.org/2000/svg" width="24" height="24" viewBox="0 0 48 48">
<path d="M 29.164062 5.0097656 A 1.50015 1.50015 0 0 0 27.962891 7.4492188 L 38.427734 20.845703 A 1.5006806 1.5006806 0 0 0 40.792969 18.998047 L 30.326172 5.6015625 A 1.50015 1.50015 0 0 0 29.164062 5.0097656 z M 23.386719 10.646484 A 1.50015 1.50015 0 0 0 22.466797 13.324219 L 35.679688 24.023438 A 1.50015 1.50015 0 1 0 37.566406 21.691406 L 24.355469 10.994141 A 1.50015 1.50015 0 0 0 23.386719 10.646484 z M 19.025391 17.429688 A 1.50015 1.50015 0 0 0 18.435547 20.287109 L 33.714844 27.738281 A 1.5002521 1.5002521 0 1 0 35.029297 25.041016 L 19.75 17.589844 A 1.50015 1.50015 0 0 0 19.025391 17.429688 z M 16.451172 25.009766 A 1.50015 1.50015 0 0 0 16.072266 27.974609 L 32.636719 31.798828 A 1.50015 1.50015 0 1 0 33.310547 28.876953 L 16.748047 25.052734 A 1.50015 1.50015 0 0 0 16.451172 25.009766 z M 7.9707031 28.972656 A 2.0002 2.0002 0 0 0 6 31 L 6 40 C 6 42.18494 7.8150603 44 10 44 L 38 44 C 40.18494 44 42 42.18494 42 40 L 42 31 A 2.0002 2.0002 0 1 0 38 31 L 38 40 L 10 40 L 10 31 A 2.0002 2.0002 0 0 0 7.9707031 28.972656 z M 15.5 33 A 1.50015 1.50015 0 1 0 15.5 36 L 32.5 36 A 1.50015 1.50015 0 1 0 32.5 33 L 15.5 33 z"></path>
</svg>

<svg xmlns="http://www.w3.org/2000/svg" width="24" height="24" viewBox="0 0 48 48">
  <path d="M29.164 5.01a1.5 1.5 0 0 0-1.201 2.44l10.465 13.396a1.5 1.5 0 0 0 2.365-1.848L30.326 5.602a1.5 1.5 0 0 0-1.162-.592zm-5.777 5.636a1.5 1.5 0 0 0-.92 2.678l13.213 10.7a1.5 1.5 0 1 0 1.886-2.333l-13.21-10.697a1.5 1.5 0 0 0-.97-.348zm-4.362 6.784a1.5 1.5 0 0 0-.59 2.857l15.28 7.451a1.5 1.5 0 1 0 1.314-2.697L19.75 17.59a1.5 1.5 0 0 0-.725-.16zm-2.574 7.58a1.5 1.5 0 0 0-.379 2.965l16.565 3.824a1.5 1.5 0 1 0 .674-2.922l-16.563-3.824a1.5 1.5 0 0 0-.297-.043zm-8.48 3.963A2 2 0 0 0 6 31v9c0 2.185 1.815 4 4 4h28c2.185 0 4-1.815 4-4v-9a2 2 0 1 0-4 0v9H10v-9a2 2 0 0 0-2.03-2.027zM15.5 33a1.5 1.5 0 1 0 0 3h17a1.5 1.5 0 1 0 0-3h-17z"/>
</svg>
